X: 27457
T: Molly Eamonn Mor
R: reel
M: 4/4
K: Edorian
ef|:eBBB GBEF|GGGA BGec|dFFF DF B/c/d|fbaf ggfg|
eBBB GBEF|GGGA Bgec|dfaf gfef|gbaf geef:|
|:gBBB GBef|ggga bgag|fdd/d/d A2FG|ADFA defa|
geed B2ef|ggga bgag|fd B/c/d fgaf|gfed B/c/d ef:|

